icon_installer/data/icons/scalable/actions/show-image-alt-symbolic.svg

<?xml version="1.0" encoding="UTF-8"?>
<svg height="16px" viewBox="0 0 16 16" width="16px" xmlns="http://www.w3.org/2000/svg">
    <g fill="#2e3436">
        <path d="m 6.988281 5.996094 c 0 0.550781 -0.449219 1 -1 1 c -0.554687 0 -1 -0.449219 -1 -1 c 0 -0.554688 0.445313 -1 1 -1 c 0.550781 0 1 0.445312 1 1 z m 0 0"/>
        <path d="m 11.96875 3 c 0.570312 0 1.03125 0.460938 1.03125 1.03125 v 7.9375 c 0 0.570312 -0.460938 1.03125 -1.03125 1.03125 h -7.9375 c -0.570312 0 -1.03125 -0.460938 -1.03125 -1.03125 v -7.9375 c 0 -0.570312 0.460938 -1.03125 1.03125 -1.03125 z m -10.96875 1.03125 v 7.9375 c 0 1.679688 1.351562 3.03125 3.03125 3.03125 h 7.9375 c 1.679688 0 3.03125 -1.351562 3.03125 -3.03125 v -7.9375 c 0 -1.679688 -1.351562 -3.03125 -3.03125 -3.03125 h -7.9375 c -1.679688 0 -3.03125 1.351562 -3.03125 3.03125 z m 0 0"/>
        <path d="m 2.820312 12.359375 l 2.320313 -2.25 c 0.175781 -0.171875 0.464844 -0.167969 0.636719 0.007813 l 3.863281 3.980468 l 0.71875 -0.695312 l -3.863281 -3.980469 c -0.5625 -0.578125 -1.476563 -0.59375 -2.054688 -0.03125 l -2.316406 2.25 z m 0 0"/>
        <path d="m 7.136719 11.109375 l 2.097656 -2.015625 c 0.175781 -0.167969 0.460937 -0.164062 0.628906 0.007812 l 3.78125 3.8125 l 0.710938 -0.703124 l -3.78125 -3.8125 c -0.558594 -0.5625 -1.460938 -0.574219 -2.035157 -0.023438 l -2.097656 2.015625 z m 0 0"/>
    </g>
</svg>

<svg xmlns="http://www.w3.org/2000/svg" width="16" height="16"><g fill="#2e3436"><path d="M6.988 5.996a1 1 0 1 1-2.001.001 1 1 0 0 1 2.001 0zm0 0"/><path d="M11.969 3C12.539 3 13 3.46 13 4.031v7.938c0 .57-.46 1.031-1.031 1.031H4.03A1.03 1.03 0 0 1 3 11.969V4.03C3 3.461 3.46 3 4.031 3zM1 4.031v7.938A3.024 3.024 0 0 0 4.031 15h7.938A3.024 3.024 0 0 0 15 11.969V4.03A3.024 3.024 0 0 0 11.969 1H4.03A3.024 3.024 0 0 0 1 4.031zm0 0"/><path d="m2.82 12.36 2.32-2.25a.454.454 0 0 1 .637.007l3.864 3.98.718-.695-3.863-3.98a1.448 1.448 0 0 0-2.055-.031l-2.316 2.25zm0 0"/><path d="m7.137 11.11 2.097-2.016a.452.452 0 0 1 .63.008l3.78 3.812.711-.703-3.78-3.813a1.449 1.449 0 0 0-2.036-.023l-2.098 2.016zm0 0"/></g></svg>
